vagrant/solerni/theme/halloween/pix/discussion.svg

<svg version="1.2" baseProfile="tiny" xmlns="http://www.w3.org/2000/svg" width="36" height="36" viewBox="2.4 0.4 36 36"><path fill="#FFF" d="M20.4 2.4c8.8 0 16 7.2 16 16s-7.2 16-16 16-16-7.2-16-16 7.2-16 16-16m0-2c-9.9 0-18 8.1-18 18s8.1 18 18 18 18-8.1 18-18-8.1-18-18-18z"/><path fill="#FFF" d="M32.3 10H8.5v14.6h9.7l2.2 2.2v-2.2h11.9V10zm-17.4 8.5h-2.5V16h2.5v2.5zm6.7 0h-2.5V16h2.5v2.5zm6.7 0h-2.5V16h2.5v2.5z"/></svg>

<?xml version="1.0" encoding="utf-8"?>
<!-- Generator: Adobe Illustrator 18.0.0, SVG Export Plug-In . SVG Version: 6.00 Build 0)  -->
<svg version="1.2" baseProfile="tiny" id="Capa_1" xmlns="http://www.w3.org/2000/svg" xmlns:xlink="http://www.w3.org/1999/xlink"
	 x="0px" y="0px" width="36px" height="36px" viewBox="2.4 0.4 36 36" xml:space="preserve">
<path fill="#FFFFFF" d="M20.4,2.4c8.8,0,16,7.2,16,16s-7.2,16-16,16s-16-7.2-16-16S11.6,2.4,20.4,2.4 M20.4,0.4c-9.9,0-18,8.1-18,18
	c0,9.9,8.1,18,18,18s18-8.1,18-18C38.4,8.5,30.3,0.4,20.4,0.4L20.4,0.4z"/>
<path fill="#FFFFFF" d="M32.3,10H8.5v14.6h9.7l2.2,2.2v-2.2h11.9C32.3,24.6,32.3,10,32.3,10z M14.9,18.5h-2.5V16h2.5V18.5z
	 M21.6,18.5h-2.5V16h2.5V18.5z M28.3,18.5h-2.5V16h2.5V18.5z"/>
</svg>
